packages/ffe-icons/icons/filled/sm/account_tree.svg

<svg xmlns="http://www.w3.org/2000/svg" height="20" viewBox="0 -960 960 960" width="20"><path d="M634.001-206.769v-55.232H518.308q-26.623 0-45.465-18.842-18.842-18.842-18.842-45.465v-319.693H325.999v55.232q0 22.008-15.38 37.388-15.38 15.38-37.388 15.38H158.769q-22.008 0-37.388-15.406-15.38-15.406-15.38-37.449v-162.639q0-22.044 15.38-37.274t37.388-15.23h114.462q22.008 0 37.388 15.38 15.38 15.38 15.38 37.388v55.232h308.002v-55.397q0-22.143 15.38-37.373 15.38-15.23 37.388-15.23h114.462q22.008 0 37.388 15.406 15.38 15.406 15.38 37.449v162.639q0 22.044-15.38 37.274t-37.388 15.23H686.769q-22.008 0-37.388-15.38-15.38-15.38-15.38-37.388v-55.232H505.999v319.693q0 5.385 3.462 8.847 3.462 3.462 8.847 3.462h115.693v-55.397q0-22.143 15.38-37.373 15.38-15.23 37.388-15.23h114.462q22.008 0 37.388 15.406 15.38 15.406 15.38 37.449v162.639q0 22.044-15.38 37.274t-37.388 15.23H686.769q-22.008 0-37.388-15.38-15.38-15.38-15.38-37.388Z"/></svg>

<svg xmlns="http://www.w3.org/2000/svg" height="20" viewBox="0 -960 960 960" width="20"><path d="M634-206.77V-262H518.31q-26.63 0-45.47-18.84T454-326.31V-646H326v55.23q0 22.01-15.38 37.39Q295.24-538 273.23-538H158.77q-22.01 0-37.39-15.41Q106-568.81 106-590.86V-753.5q0-22.04 15.38-37.27Q136.76-806 158.77-806h114.46q22.01 0 37.39 15.38Q326-775.24 326-753.23V-698h308v-55.4q0-22.14 15.38-37.37Q664.76-806 686.77-806h114.46q22.01 0 37.39 15.41Q854-775.19 854-753.14v162.64q0 22.04-15.38 37.27Q823.24-538 801.23-538H686.77q-22.01 0-37.39-15.38Q634-568.76 634-590.77V-646H506v319.69q0 5.39 3.46 8.85t8.85 3.46H634v-55.4q0-22.14 15.38-37.37Q664.76-422 686.77-422h114.46q22.01 0 37.39 15.41Q854-391.19 854-369.14v162.64q0 22.04-15.38 37.27Q823.24-154 801.23-154H686.77q-22.01 0-37.39-15.38Q634-184.76 634-206.77Z"/></svg>
